packages/icons/svg/Outline/loader.svg

<svg width="24" height="24" viewBox="0 0 24 24" fill="none" xmlns="http://www.w3.org/2000/svg">
<g id="Icon/Outline/loader">
<path id="Mask" fill-rule="evenodd" clip-rule="evenodd" d="M11 3C11 2.447 11.448 2 12 2C12.552 2 13 2.447 13 3V5C13 5.553 12.552 6 12 6C11.448 6 11 5.553 11 5V3ZM19 11H21C21.552 11 22 11.447 22 12C22 12.553 21.552 13 21 13H19C18.448 13 18 12.553 18 12C18 11.447 18.448 11 19 11ZM6 12C6 11.447 5.552 11 5 11H3C2.448 11 2 11.447 2 12C2 12.553 2.448 13 3 13H5C5.552 13 6 12.553 6 12ZM4.8067 5.0533C5.1917 4.6573 5.8237 4.6443 6.2207 5.0283L7.6597 6.4183C8.0567 6.8013 8.0677 7.4353 7.6837 7.8323C7.4877 8.0353 7.2267 8.1373 6.9647 8.1373C6.7147 8.1373 6.4647 8.0453 6.2697 7.8573L4.8307 6.4673C4.4337 6.0843 4.4227 5.4503 4.8067 5.0533ZM17.0352 8.1377C17.2852 8.1377 17.5352 8.0447 17.7302 7.8577L19.1692 6.4677C19.5662 6.0837 19.5772 5.4497 19.1932 5.0537C18.8102 4.6577 18.1782 4.6447 17.7792 5.0287L16.3402 6.4177C15.9432 6.8017 15.9322 7.4357 16.3162 7.8317C16.5122 8.0347 16.7732 8.1377 17.0352 8.1377ZM11 19C11 18.447 11.448 18 12 18C12.552 18 13 18.447 13 19V21C13 21.553 12.552 22 12 22C11.448 22 11 21.553 11 21V19ZM17.73 16.1426C17.333 15.7596 16.7 15.7716 16.316 16.1676C15.932 16.5646 15.943 17.1986 16.34 17.5816L17.779 18.9716C17.974 19.1596 18.224 19.2516 18.474 19.2516C18.736 19.2516 18.997 19.1496 19.193 18.9466C19.577 18.5496 19.566 17.9156 19.169 17.5326L17.73 16.1426ZM4.831 17.5326L6.27 16.1426C6.668 15.7596 7.301 15.7716 7.684 16.1676C8.068 16.5646 8.057 17.1986 7.66 17.5816L6.221 18.9716C6.026 19.1596 5.776 19.2516 5.526 19.2516C5.264 19.2516 5.003 19.1496 4.807 18.9466C4.423 18.5496 4.434 17.9156 4.831 17.5326Z" fill="#000000"/>
</g>
</svg>

<svg fill="none" height="24" viewBox="0 0 24 24" width="24" xmlns="http://www.w3.org/2000/svg"><path clip-rule="evenodd" d="m11 3c0-.553.448-1 1-1s1 .447 1 1v2c0 .553-.448 1-1 1s-1-.447-1-1zm8 8h2c.552 0 1 .447 1 1s-.448 1-1 1h-2c-.552 0-1-.447-1-1s.448-1 1-1zm-13 1c0-.553-.448-1-1-1h-2c-.552 0-1 .447-1 1s.448 1 1 1h2c.552 0 1-.447 1-1zm-1.19329-6.9467c.385-.396 1.017-.409 1.414-.025l1.439 1.39c.397.383.408 1.017.024 1.414-.196.203-.457.305-.719.305-.25 0-.5-.092-.695-.28l-1.439-1.39c-.397-.383-.408-1.017-.024-1.414zm12.22849 3.0844c.25 0 .5-.093.695-.28l1.439-1.39c.397-.384.408-1.018.024-1.414-.383-.396-1.015-.409-1.414-.025l-1.439 1.389c-.397.384-.408 1.018-.024 1.414.196.203.457.306.719.306zm-6.0352 10.8622c0-.553.448-1 1-1s1 .447 1 1v2c0 .553-.448 1-1 1s-1-.447-1-1zm6.73-2.8573c-.397-.383-1.03-.371-1.414.025-.384.397-.373 1.031.024 1.414l1.439 1.39c.195.188.445.28.695.28.262 0 .523-.102.719-.305.384-.397.373-1.031-.024-1.414zm-12.89898 1.39 1.439-1.39c.398-.383 1.031-.371 1.414.025.384.397.373 1.031-.024 1.414l-1.439 1.39c-.195.188-.445.28-.695.28-.262 0-.523-.102-.719-.305-.384-.397-.373-1.031.024-1.414z" fill="#6b7280" fill-rule="evenodd"/></svg>
